X: 20425
T: John Fennell's
R: jig
M: 6/8
K: Eminor
EEE BAF|EAF FED|EEE BAF|FAF E2D|
EEE BAF|EAF FED|EDE BAF|FED E2c|
BBB def|edB AFD|BBB def|edB e2c|
BBB def|edB AFD|EDE BAF|FED E3|

